icons/Editor/bring-to-front.svg

<svg viewBox="0 0 24 24" xmlns="http://www.w3.org/2000/svg"><path d="M11 3C11.5523 3 12 3.44772 12 4V6H17C17.5523 6 18 6.44772 18 7V12H20C20.5523 12 21 12.4477 21 13V20C21 20.5523 20.5523 21 20 21H13C12.4477 21 12 20.5523 12 20V18H7C6.44772 18 6 17.5523 6 17V12H4C3.44772 12 3 11.5523 3 11V4C3 3.44772 3.44772 3 4 3H11ZM16 8H8V16H16V8Z"/></svg>

<svg xmlns="http://www.w3.org/2000/svg" viewBox="0 0 24 24">
    <g>
        <path fill="none" d="M0 0H24V24H0z"/>
        <path d="M11 3c.552 0 1 .448 1 1v2h5c.552 0 1 .448 1 1v5h2c.552 0 1 .448 1 1v7c0 .552-.448 1-1 1h-7c-.552 0-1-.448-1-1v-2H7c-.552 0-1-.448-1-1v-5H4c-.552 0-1-.448-1-1V4c0-.552.448-1 1-1h7zm5 5H8v8h8V8z"/>
    </g>
</svg>
